src/shared/assets/svgs/hoverpause.svg

<svg width="64" height="64" viewBox="0 0 64 64" fill="none" xmlns="http://www.w3.org/2000/svg">
<circle opacity="0.4" cx="32" cy="32" r="32" fill="#868C93"/>
<path d="M28.7982 40.5335H25.5982C25.3153 40.5335 25.044 40.4517 24.8439 40.3062C24.6439 40.1608 24.5315 39.9634 24.5315 39.7577V24.2426C24.5315 24.0368 24.6439 23.8395 24.8439 23.694C25.044 23.5485 25.3153 23.4668 25.5982 23.4668H28.7982C29.0811 23.4668 29.3524 23.5485 29.5524 23.694C29.7524 23.8395 29.8648 24.0368 29.8648 24.2426V39.7577C29.8648 39.9634 29.7524 40.1608 29.5524 40.3062C29.3524 40.4517 29.0811 40.5335 28.7982 40.5335Z" fill="#868C93"/>
<path d="M38.3987 40.5335H35.1987C34.9158 40.5335 34.6445 40.4517 34.4445 40.3062C34.2445 40.1608 34.1321 39.9634 34.1321 39.7577V24.2426C34.1321 24.0368 34.2445 23.8395 34.4445 23.694C34.6445 23.5485 34.9158 23.4668 35.1987 23.4668H38.3987C38.6816 23.4668 38.953 23.5485 39.153 23.694C39.353 23.8395 39.4654 24.0368 39.4654 24.2426V39.7577C39.4654 39.9634 39.353 40.1608 39.153 40.3062C38.953 40.4517 38.6816 40.5335 38.3987 40.5335Z" fill="#868C93"/>
</svg>

<svg xmlns="http://www.w3.org/2000/svg" width="64" height="64" fill="none"><circle cx="32" cy="32" r="32" fill="#868C93" opacity=".4"/><path fill="#868C93" d="M28.798 40.534h-3.2c-.283 0-.554-.082-.754-.228-.2-.145-.312-.343-.312-.548V24.243c0-.206.112-.403.312-.549.2-.145.471-.227.754-.227h3.2c.283 0 .554.082.754.227s.313.343.313.549v15.515c0 .205-.113.403-.313.548s-.47.227-.754.227m9.601.001h-3.2c-.283 0-.554-.082-.755-.228-.2-.145-.312-.343-.312-.548V24.243c0-.206.113-.403.313-.549.2-.145.47-.227.754-.227h3.2c.283 0 .554.082.754.227s.312.343.312.549v15.515c0 .205-.112.403-.312.548s-.471.227-.754.227"/></svg>
